X: 8120
T: Controverse
R: polka
M: 2/4
K: Amajor
|:ccA>^G|EAAB|cBcd|e3 f|
^g gfg/f/|e>dcd|e>dcB|A2 A2:|
c>eae|^gdBd|c>eae|^gd B2|
c>eae|^gdBd|e>dcB|A2 A2:|

